!!!!SEGMENT: pl-kk--kk-i-389--009-006_anonim--missa-no-9-benedictus.krn
!!!cenid: 17xx:2519
!!!COM: Anonim
!!!COM-rismID: pe30004985
!!!CDT:
!!!CNT:
!!!OPR: [Missa] No. 9.
!!!OTL: Benedictus
!!!OMV: 006
!!!PDT:
!!!AGN: Sacred; Mass
!!!YEC: Copyright 2022 Narodowy Instytut Fryderyka Chopina (https://polishscores.org)
!!!YEM: License CC-BY-4.0 (https://creativecommons.org/licenses/by/4.0)
!!!SMS-siglum: PL-Kk
!!!SMS-shelfmark: Kk.I.389
!!!SMS-variant:
!!!SMS-altvar:
!!!SMS-shelfwork: 009-006 M
!!!NIFC-rismSourceID: 1001146182
!!!NIFC-rismChildID: 1001147253
!!!NIFC-islandoraID: pl-kk:6976
!!!URL-pdf-islandora: https://repozytorium.nifc.pl/islandora/object/pl-kk%3A6976/datastream/PDF/view
!!!URL-scan: https://polish.musicsources.pl/pl/lokalizacje/galeria/rekopisy/5999/1 @EN{Scan on Polish Music Sources Website} @PL{Skany w portalu Dziedzictwo Muzyki Polskiej w otwartym dostępie}
!!!IIIF:
!!!ONB-nifc: UWAGA: S – skan 15-16, A – 34-35, T – 53-54, B – 72-73. Części Mszy: Rorate, Kyrie, Gloria, Graduale, Sanctus, Benedictus, Agnus, Dona.
!!!AIN: 1 alto 1 bass 1 soprn 1 tenor
!!!key: a
**kern	**text	**kern	**text	**kern	**text	**kern	**text
*part4	*part4	*part3	*part3	*part2	*part2	*part1	*part1
*staff4	*staff4	*staff3	*staff3	*staff2	*staff2	*staff1	*staff1
*I"Basso.	*	*I"Tenore.	*	*I"Alto.	*	*I"Soprano.	*
*I'B	*	*I'T	*	*I'A	*	*I'S	*
*ICvox	*	*ICvox	*	*ICvox	*	*ICvox	*
*Ibass	*	*Itenor	*	*Ialto	*	*Isoprn	*
*clefF4	*	*clefC4	*	*clefC3	*	*clefC1	*
*k[]	*	*k[b-]	*	*k[b-]	*	*k[b-]	*
*a:	*	*a:	*	*a:	*	*a:	*
*M3/4	*	*M3/4	*	*M3/4	*	*M3/4	*
=1	=1	=1	=1	=1	=1	=1	=1
*	*	*	*	*	*	*all\right:global	*
*	*	*	*	*	*	*2\right	*
4AA/	Be-	8c\L	Be-	8e\L	Be-	2a\	Be-
.	.	8d\J	.	8f\J	.	.	.
4A\	.	4c\	.	4e\	.	.	.
4E\	-ne-	4B-\	-ne-	4d\	-ne-	4g#X\	-ne-
=2	=2	=2	=2	=2	=2	=2	=2
4C/	-dic-	16c\LL	-dic-	16e\LL	-dic-	4a\	-dic-
.	.	16B-\	.	16d\	.	.	.
.	.	16A\	.	16c\	.	.	.
.	.	16B-\JJ	.	16d\JJ	.	.	.
4AA/	-tus	4A\	-ctus	4c\	-ctus	4ee\	-tus
4A\	qui	4c\	qui	4e\	qui	4a\	qui
=3	=3	=3	=3	=3	=3	=3	=3
4D\	ve-	4B-\	ve-	4d/	ve-	4f/	ve-
*2\right	*	*	*	*	*	*	*
2E\	.	4A\	.	4c/	.	2e/	.
.	.	4G#X/	.	4B-/	.	.	.
=4	=4	=4	=4	=4	=4	=4	=4
4AA/	-nit	4A\	-nit	4c\	-nit	4e/	-nit,
4r	.	4r	.	4r	.	4r	.
4r	.	8r	.	8r	.	8r	.
.	.	8A\	qui	8c\	qui	8e/	qui
=5	=5	=5	=5	=5	=5	=5	=5
!LO:TX:a:t=4,	!	!	!	!	!	!	!
!LO:N:vis=00	!	!	!	!	!	!	!
0.r	.	4A\	ve-	4c/	ve-	4ee\	ve-
.	.	4G#X\	-nit	4B-/	-nit	4ee\	-nit
.	.	4B-\	qui	4d/	in	4ee\	qui
!	!	!LO:LB:g=original	!	!	!	!	!
=6-	=6	=6	=6	=6	=6	=6	=6
.	.	4B-\	ve-	4e\	no-	4ee\	ve-
.	.	4A\	-nit	4d\	-mi-	4ee\	-nit
.	.	4c\	in	4e\	-ne	4a\	in
=7-	=7	=7	=7	=7	=7	=7	=7
*	*	*	*	*2\right	*	*	*
.	.	8c\L	no-	2e\	no-	8a\L	no-
.	.	8B-\	.	.	.	8g#X\J	.
.	.	8d\	.	.	.	8b-\L	.
.	.	8c\J	.	.	.	8a\J	.
.	.	8B-\	-mi-	8e\	-mi-	8g#\	-mi-
.	.	8c\	-ne	8e\	-ne	8a\	-ne
!	!	!	!	!	!	!LO:LB:g=original	!
=8-	=8	=8	=8	=8	=8	=8	=8
.	.	8c\L	Do-	8e\	Do-	8a\	Do-
.	.	8B-\J	-mi-	8e\	-mi-	8g#X\	-mi-
.	.	4B-\	-ni,	4e\	-ni	4g#\	-ni
.	.	4r	.	4r	.	4r	.
!	!	!	!	!LO:LB:g=original	!	!	!
=9	=9	=9	=9	=9	=9	=9	=9
4C\	Be-	8e\L	Be-	8g\L	Be-	2cc\	Be-
.	.	8f\J	.	8a\J	.	.	.
4E\	.	4e\	.	4g\	.	.	.
4G\	-ne-	4d\	-ne-	4f\	-ne-	4b-\	-ne-
=10	=10	=10	=10	=10	=10	=10	=10
4c\	-dic-	16e\LL	-dic-	16g\LL	-dic-	4g/	-dic-
.	.	16d\	.	16f\	.	.	.
.	.	16c\	.	16e\	.	.	.
.	.	16d\JJ	.	16f\JJ	.	.	.
4C/	-tus	8c\L	-tus	8e\L	-tus	4g/	-tus
.	.	8e\J	.	8g\J	.	.	.
!LO:LB:g=original	!	!	!	!	!	!	!
8BB/L	qui	8d\L	qui	8f\L	qui	4g/	qui
8C/J	.	8c\J	.	8e\J	.	.	.
!	!	!LO:LB:g=original	!	!	!	!	!
=11	=11	=11	=11	=11	=11	=11	=11
4G\	ve-	4c\	ve-	4e\	ve-	4g/	ve-
4GG/	-nit	4B-\	-nit	4d\	-nit	4g/	-nit
4G\	in	4d\	in	4f\	in	4g/	in
=12	=12	=12	=12	=12	=12	=12	=12
8C/L	no-	8c\L	no-	8e\L	no-	4.g/	no-
8BB/J	.	8d\J	.	8f\J	.	.	.
8C/L	-mi-	8c\L	-mi-	8e\L	.	.	.
8BB/J	.	8d\J	.	8f\J	-mi-	8g/	-mi-
4C/	-ne	4e\	-ne	4g\	-ne	4g/	-ne
=13	=13	=13	=13	=13	=13	=13	=13
.	.	8qqg/	.	.	.	.	.
4F\	Do-	8f\L	Do-	8a\L	Do-	4a/	Do-
.	.	16e\L	.	16g\L	.	.	.
.	.	16d\JJ	.	16f\JJ	.	.	.
4G\	.	4c\	.	4e\	.	4g/	.
4GG/	-mi-	4B-\	-mi-	4d\	-mi-	4g/	-mi-
=14	=14	=14	=14	=14	=14	=14	=14
4C/	-ni	4c\	-ni	4e\	-ni	4g/	-ni
4r	.	4r	.	4r	.	4r	.
4C/	qui	8c\L	qui	8e\L	qui	4r	.
.	.	8d\J	.	8f\J	.	.	.
=15	=15	=15	=15	=15	=15	=15	=15
!	!	!	!	!	!	!LO:TX:a:t=1.	!
4G\	ve-	4c\	ve-	4e\	ve-	2.r	.
4GG/	-nit	4B-\	-nit	4d\	-nit	.	.
8G\L	qui	8d\L	qui	8f\L	qui	.	.
16A\L	.	8e\J	.	8g\J	.	.	.
16B\JJ	.	.	.	.	.	.	.
!	!	!	!	!LO:LB:g=original	!	!LO:LB:g=original	!
=16	=16	=16	=16	=16	=16	=16	=16
4c\	ve-	4d\	ve-	4f\	ve-	4r	.
4C/	-nit	4c\	-nit	4e\	-nit	4r	.
4r	.	8c\L	in	4e\	in	8a\L	qui
.	.	8d\J	.	.	.	8b-\J	.
!LO:LB:g=original	!	!LO:LB:g=original	!	!	!	!	!
=17	=17	=17	=17	=17	=17	=17	=17
!LO:TX:a:t=1.	!	!	!	!	!	!	!
2.r	.	4c\	no-	4e\	no-	4a\	ve-
.	.	4B-\	.	4e\	-mi-	4g#X\	-nit
.	.	8d\L	-mi-	4e\	-ne	8b-\L	qui
.	.	8e\J	-ne,	.	.	8cc\J	.
=18	=18	=18	=18	=18	=18	=18	=18
4r	.	4d\	ve-	4e\	ve-	4b-\	ve-
4r	.	4c\	-nit	4e\	-nit	4a\	-nit
4AA/	in	4c\	in	4e\	in	4a\	in
=19	=19	=19	=19	=19	=19	=19	=19
4.AA/	no-	4.c\	no-	4.e\	no-	4.a\	no-
8BB/	-mi-	8B-\	.	8d\	.	8g#X\	-mi-
4C/	-ne	8A\L	-mi-	8c\L	-mi-	4a\	-ne
.	.	16B-\L	-ne	16d\L	-ne	.	.
.	.	16c\JJ	.	16e\JJ	.	.	.
=20	=20	=20	=20	=20	=20	=20	=20
4D\	Do-	4d\	Do-	4f\	Do-	4b-\	Do-
4E\	.	4c\	.	4e\	.	4a\	.
4E\	-mi-	4B-\	-mi-	4e\	-mi-	4g#X\	-mi-
=21	=21	=21	=21	=21	=21	=21	=21
4AA/	-ni	4c\	-ni	4e\	-ni	2a\	-ni,
4r	.	4r	.	4r	.	.	.
4AA/	in	4c\	in	4e\	in	4a\	in
=22	=22	=22	=22	=22	=22	=22	=22
4.AA/	no-	4.c\	no-	4.e\	no-	4.a\	no-
8BB/	-mi-	8B-\	.	8d\	.	8g#X\	-mi-
4C/	-ne	8A\L	mi-	8c\L	mi-	4a\	-ne
.	.	16B-\L	-ne	16d\L	-ne	.	.
.	.	16c\JJ	.	16e\JJ	.	.	.
=23	=23	=23	=23	=23	=23	=23	=23
4D\	Do-	4d\	Do-	4f\	Do-	4b-\	Do-
4E\	.	4c\	.	4e\	.	4a\	.
4E\	-mi-	4B-\	-mi-	4e\	-mi-	4g#X\	-mi-
=24	=24	=24	=24	=24	=24	=24	=24
*	*	*2\right	*	*	*	*	*
2AA/	-ni.	2c\	-ni.	2e\	-ni	2a\	-ni,
!LO:TX:b:t=Osanna Da Capo.	!	!LO:TX:b:t=Osanna Da Capo.	!	!LO:TX:a:t=Osanna\nDa Capo	!	!LO:TX:a:t=Osana\nDa Capo.	!
4r	.	4r	.	4r	.	4r	.
==	==	==	==	==	==	==	==
*-	*-	*-	*-	*-	*-	*-	*-
!!!system-decoration: [(s1,s2,s3,s4)]
!!!ENC: Filip Voros
!!!END: 2023-11-12
!!!ENC: Leszek Kubiak
!!!END: 2024-01-20
